img/logo-zen.svg

<?xml version="1.0" encoding="UTF-8"?>
<svg width="280px" height="290px" viewBox="0 0 280 290" version="1.1" xmlns="http://www.w3.org/2000/svg" xmlns:xlink="http://www.w3.org/1999/xlink">
    <title>logo-zen</title>
    <g id="logo-zen" stroke="none" stroke-width="1" fill="none" fill-rule="evenodd">
        <path d="M139.994429,5 C144.930166,5 149.910469,5.25626741 154.790498,5.76880223 C162.17739,6.54874652 168.071306,12.7437326 167.670208,20.1643454 C167.235685,28.0640669 160.261032,33.8690808 152.517608,33.0222841 C148.395209,32.5654596 144.183678,32.3426184 139.994429,32.3426184 C136.618519,32.3426184 133.25375,32.4986072 129.900123,32.7994429 C121.755601,33.545961 116.073376,41.2339833 117.889459,49.2116992 L117.889459,49.2116992 L117.989734,49.6350975 C119.504994,56.2980501 115.76141,62.9275766 109.366122,65.3119777 C76.2532331,77.6908078 54.0257053,108.955432 54.0257053,144.977716 C54.0257053,191.952646 92.5868449,230.169916 139.994429,230.169916 C186.744658,230.169916 224.871275,193 225.918587,146.916435 C213.963631,144.799443 203.122836,137.300836 197.206637,125.635097 C187.212606,105.947075 195.067447,81.8802228 214.765827,71.8969359 C233.338904,62.4707521 255.198759,69.3119777 266.663483,86.2144847 C277.24802,101.802228 280,131.306407 280,145 C280,222.203343 217.1947,285 139.994429,285 C62.7941586,285 6.82121026e-12,222.203343 6.82121026e-12,145 C6.82121026e-12,103.061281 18.5619355,63.6852368 50.9394771,36.9665738 C75.9189845,16.3537604 107.550038,5 139.994429,5 Z M195.192233,15.5314763 C203.203056,15.5314763 209.698619,22.0272981 209.698619,30.0384401 C209.698619,38.0495822 203.203056,44.5454039 195.192233,44.5454039 C187.181409,44.5454039 180.685846,38.0495822 180.685846,30.0384401 C180.685846,22.0272981 187.181409,15.5314763 195.192233,15.5314763 Z" id="Fill-4" fill="#333333"></path>
    </g>
</svg>

<svg xmlns="http://www.w3.org/2000/svg" viewBox="0 0 280 290">
  <path fill="#333" fill-rule="evenodd" d="M140 5c4.93 0 9.91.26 14.79.77 7.39.78 13.28 6.97 12.88 14.4-.43 7.9-7.4 13.7-15.15 12.85a114.12 114.12 0 00-22.62-.22 13.5 13.5 0 00-12.01 16.41l.1.43a13.55 13.55 0 01-8.62 15.67 84.72 84.72 0 00-55.34 79.67c0 46.97 38.56 85.19 85.96 85.19 46.75 0 84.88-37.17 85.93-83.25a39.96 39.96 0 01-11.15-75.02c18.57-9.43 40.43-2.59 51.9 14.31C277.24 101.81 280 131.31 280 145c0 77.2-62.8 140-140 140S0 222.2 0 145c0-41.94 18.56-81.31 50.94-108.03A140.23 140.23 0 01139.99 5zm55.2 10.53a14.5 14.5 0 11-.01 29.02 14.5 14.5 0 010-29.02z"/>
</svg>
